dist/svg/positive-true.svg

<!-- Generated by Trend Micro Style Portal -->
<svg version="1.1" xmlns="http://www.w3.org/2000/svg" width="16" height="16" viewBox="0 0 16 16">
  <title>positive-true</title>
  <path fill="rgb(34,34,34)" d="M11.9 14.2l-1.5-1.4-0.4 0.3 1.9 1.9 4.1-4.9-0.4-0.3zM14 2l-8.1 9.8-3.9-3.8-2 2 6 6 10-12z"></path>
</svg>

<svg width="16" height="16" viewBox="0 0 16 16" fill="rgb(34, 34, 34)" xmlns="http://www.w3.org/2000/svg"><title>positive-true</title><path d="M11.9 14.2L10.4 12.8L10 13.1L11.9 15L16 10.1L15.6 9.8L11.9 14.2ZM14 2L5.9 11.8L2 8L0 10L6 16L16 4L14 2Z" fill="rgb(34, 34, 34)" fill-opacity="1.00"/></svg>
